X:1
M:6/4
L:1/4
Q:3/4=80
K:G
b/a/ | g>fgdgB | c>dcAag | f(d2d2)b/a/ |
g/f/g/a/gde/f/g | BgBAaf | gG2G2 :|
g/f/g/a/ggdc | Bg/f/gafd | g(G2G2) |]

